.local/share/icons/Gruvbox-Plus-Dark/actions/16/object-tweak-duplicate.svg

<svg width="16" height="16" version="1.1" xmlns="http://www.w3.org/2000/svg">
  <defs>
    <style id="current-color-scheme" type="text/css">.ColorScheme-Text { color:#ebdbb2; } .ColorScheme-Highlight { color:#458588; }</style>
  </defs>
  <path class="ColorScheme-Text" d="M 9,6.5 A 2.5,2.5 0 0 1 6.5,9 2.5,2.5 0 0 1 4,6.5 2.5,2.5 0 0 1 6.5,4 2.5,2.5 0 0 1 9,6.5 Z" fill="currentColor" opacity=".3"/>
  <path class="ColorScheme-Text" d="m12 9.5a2.5 2.5 0 0 1-2.5 2.5 2.5 2.5 0 0 1-2.5-2.5 2.5 2.5 0 0 1 2.5-2.5 2.5 2.5 0 0 1 2.5 2.5zm3-3.5a2 2 0 0 0-2 2 2 2 0 0 0 2 2zm0 7a2 2 0 0 0-2 2h2zm-7 0a2 2 0 0 0-2 2h4a2 2 0 0 0-2-2zm-7 0v2h2a2 2 0 0 0-2-2zm0-7v4a2 2 0 0 0 2-2 2 2 0 0 0-2-2zm0-5v2a2 2 0 0 0 2-2zm5 0a2 2 0 0 0 2 2 2 2 0 0 0 2-2zm7 0a2 2 0 0 0 2 2v-2z" fill="currentColor"/>
</svg>

<svg xmlns="http://www.w3.org/2000/svg" width="16" height="16" version="1.1">
 <defs>
  <style id="current-color-scheme" type="text/css">
   .ColorScheme-Text { color:#565656; } .ColorScheme-Highlight { color:#4285f4; }
  </style>
 </defs>
 <path style="opacity:0.3;fill:currentColor" class="ColorScheme-Text" d="M 9,6.5 A 2.5,2.5 0 0 1 6.5,9 2.5,2.5 0 0 1 4,6.5 2.5,2.5 0 0 1 6.5,4 2.5,2.5 0 0 1 9,6.5 Z"/>
 <path style="fill:currentColor" class="ColorScheme-Text" d="M 12,9.5 A 2.5,2.5 0 0 1 9.5,12 2.5,2.5 0 0 1 7,9.5 2.5,2.5 0 0 1 9.5,7 2.5,2.5 0 0 1 12,9.5 Z M 15,6 A 2,2 0 0 0 13,8 2,2 0 0 0 15,10 Z M 15,13 A 2,2 0 0 0 13,15 H 15 Z M 8,13 A 2,2 0 0 0 6,15 H 10 A 2,2 0 0 0 8,13 Z M 1,13 V 15 H 3 A 2,2 0 0 0 1,13 Z M 1,6 V 10 A 2,2 0 0 0 3,8 2,2 0 0 0 1,6 Z M 1,1 V 3 A 2,2 0 0 0 3,1 Z M 6,1 A 2,2 0 0 0 8,3 2,2 0 0 0 10,1 Z M 13,1 A 2,2 0 0 0 15,3 V 1 Z"/>
</svg>
